X: 36
T: Banish Misfortune
M: 6/8
L: 1/8
R: jig
K:Dmix
e|:"D"fed "C"cAG|"D" A2d "C"cAG|"D" F2D DED| FEF "C"GFG|
"D"A3"C" cAG|"D" AGA "C"cde|"D"fed "C"cAG| "D"Ad^c d2 e:|
|:"D"f2d d^cd| f2g agf| "C"e2c cBc|e2f gfe|
"D"f2g agf| "C"e2f gfe|"D"fed "C"cAG|"D"Ad^c d2e:|
|:"D"f2g "C"e2f| "D"d2e "C"c2d|"D"A3 "G"BAG| "D"F3 FED|
"C"c3 cAG| "D"AGA "C"cde| "D"fed "C"cAG|"D" Ad^c d2e:|


